X: 25568
T: Marion MacLean Of Eoligarry
R: waltz
M: 3/4
K: Dmajor
FE|:D3E FA|E4FE|D2d2c2|B4dB|AG FD AF|E4 DE|F2G2F2|E4 FE|
D3E FA|E4FE|D2d2c2|B4 AG|FG A2F2|E6|(D6|D6):|
|:fg a3d|fge4|dcd2c2|A2B4|AG FA d2|f2e4|dc Bdf2|aba4|
[1 fg a3d|fg e4|dc d2c2|A2B4|AG FG A2|F2E4|D2(D4|D2)d4:|
[2 AG F3E|FG A4|Bc d2c2|A2B4|AG FG A2|F2E4|D2(D4|D6)||

